X: 2
T: Paddy Fahey's
R: reel
M: 4/4
L: 1/8
K: Ador
AEED CEB,E|A,EED E/F/G AB|cded ^cdfd eaag edcB|
AE E2 CEB,E|A,EED EGAB|cded cBAG EGDF EA, A,2||
AEED cEBE|AEED E/F/G AB|cded ^cdfd|eaag edcB|
AE E2 CEB,E|A,EED EGAB|cded cBAG|EGDF EA, A,2||
eaag edcB|AE E2 cBcd|eged cBcd egdg egdg|
ea a2 edcB|AE E2 c3 d|eged cBcd eaag egdg||
eaag edcB|AE E2 cBcd|e/^f/g ed cBcd egdg egdg|
ea a2 edcB|AE E2 c3 d|eged cBcd|eaag edcB||

composer: Paddy Fahey
